!!!!SEGMENT: pl-kk--kk-i-2--046-005_anonim--officium-a-4-voci-paschale-agnus-dei.krn
!!!cenid: 16xx:1722
!!!COM: Anonim
!!!COM-rismid: pe30004985
!!!CDT:
!!!CNT:
!!!OPR: Officium A 4 Voci Paschale
!!!OTL: Agnus Dei
!!!OMV: 005
!!!PDT:
!!!AGN: Sacred; Mass
!!!SMS-siglum: PL-Kk
!!!SMS-shelfmark: Kk.I.2
!!!SMS-shelfwork: 046-005 M
!!!NIFC-rismid: 300258064
!!!URL-scan: http://repozytorium.nifc.pl/skany/pl-kk-nut--i-2
!!!ONB-nifc: Części mszy: Kyrie, Gloria, Credo, Sanctus, Agnus Dei; skany: C: 0080-0081; A: 0184-0185; T: 0283; B: 0384;
!!!AIN: 3 empty 1 tenor
!!!key: 1t
**kern	**text	**kern	**text	**kern	**text	**kern	**text
*part4	*part4	*part3	*part3	*part2	*part2	*part1	*part1
*staff4	*staff4	*staff3	*staff3	*staff2	*staff2	*staff1	*staff1
*Iempty	*	*Itenor	*	*Iempty	*	*Iempty	*
*I"BASVS	*	*I"TENOR	*	*I"ALTVS	*	*I"DISCANTVS	*
*I'B	*	*I'T	*	*I'A	*	*I'S	*
*ICvox	*	*ICvox	*	*ICvox	*	*ICvox	*
*IG	*	*	*	*	*	*	*
*clefF4	*	*clefC4	*	*clefC4	*	*clefC3	*
*k[]	*	*k[]	*	*k[]	*	*k[]	*
*D:	*	*D:	*	*D:	*	*D:	*
*M2/1	*	*M2/1	*	*M2/1	*	*M2/1	*
*met(C|)	*	*met(C|)	*	*met(C|)	*	*met(C|)	*
=1-	=1-	=1-	=1-	=1-	=1-	=1-	=1-
*2\right	*	*2\right	*	*2\right	*	*2\right	*
*all\right	*	*all\right	*	*all\right	*	*all\right	*
2.AA/	A-	1E	A-	1.A	A-	2.c#X/	A-
!	!	!	!	!	!	!LO:TX:t=P:problem=kreska pseudotaktowa	!
4BB/	.	.	.	.	.	4d\	.
!	!	!LO:TX:t=P:problem=kreska pseudotaktowa	!	!	!	!	!
1C#X	.	0A	-gnus	.	.	2e\	.
!	!	!	!	!LO:TX:t=P:problem=kreska pseudotaktowa	!	!	!
.	.	.	.	2e\	-gnus	1A/	gnus
=2-	=2-	=2-	=2-	=2-	=2-	=2-	=2-
!LO:TX:t=P:problem=kreska pseudotaktowa	!	!	!	!	!	!	!
1D	-gnus	.	.	2.d\	De-	.	.
.	.	.	.	.	.	2.d\	.
!	!	!	!	!LO:TX:t=P:problem=kreska pseudotaktowa	!	!	!
.	.	.	.	4c\	.	.	.
*	*	*lig	*	*	*	*	*
0GG	De-	1G	De	4B-X\	.	.	.
.	.	.	.	4A/	.	4c/	De-
.	.	.	.	4G/	.	4B-X/	.
!	!	!	!	!LO:TX:t=P:problem=kreska pseudotaktowa	!	!LO:TX:t=P:problem=kreska pseudotaktowa	!
.	.	.	.	4A/	.	4A/	.
=3-	=3-	=3-	=3-	=3-	=3-	=3-	=3-
.	.	1D	.	2.B-X\	.	1G	.
.	.	.	.	4c\	.	.	.
*	*	*Xlig	*	*	*	*	*
1D	-i	2.D/	.	1d	.	1A	.
!	!	!LO:TX:t=P:problem=kreska pseudotaktowa	!	!	!	!	!
.	.	4E/	i	.	.	.	.
=4-	=4-	=4-	=4-	=4-	=4-	=4-	=4-
!	!	!	!	!LO:TX:t=P:problem=kreska pseudotaktowa	!	!LO:TX:t=P:problem=kreska pseudotaktowa	!
2D/	Qui	2F#X,/	.	1d	-i	1A	-i
!LO:TX:t=P:problem=kreska pseudotaktowa	!	!LO:TX:t=P:problem=kreska pseudotaktowa	!	!	!	!	!
2D/	tol-	2A/	Qui	.	.	.	.
4D/	-lis	2A/	tol-	1r	.	1r	.
4C/	pec-	.	.	.	.	.	.
4D/	-ca-	4A/	-lis	.	.	.	.
!LO:TX:t=P:problem=kreska pseudotaktowa	!	!LO:TX:t=P:problem=kreska pseudotaktowa	!	!	!	!	!
4E\	-ta	4G/	pec-	.	.	.	.
=5-	=5-	=5-	=5-	=5-	=5-	=5-	=5-
!	!	!	!	!	!	!LO:TX:t=P:problem=kreska pseudotaktowa	!
2F\	mun-	4A/	-ca-	2r	.	0r	.
.	.	4B\	-ta	.	.	.	.
!	!	!LO:TX:t=P:problem=kreska pseudotaktowa	!	!	!	!	!
!	!	!	!	!LO:TX:t=P:problem=kreska pseudotaktowa	!	!	!
2A\	-di	2c\	mun-	2A/	qui	.	.
*	*ij	*	*	*	*	*	*
2AA/	Qui	2e\	-di	2A/	tol-	.	.
!LO:TX:t=P:problem=kreska pseudotaktowa	!	!LO:TX:t=P:problem=kreska pseudotaktowa	!	!	!	!	!
*	*	*	*ij	*	*	*	*
2AA/	tol-	2E/	Qui	4A/	-lis	.	.
!	!	!	!	!LO:TX:t=P:problem=kreska pseudotaktowa	!	!	!
.	.	.	.	4G/	pec-	.	.
=6-	=6-	=6-	=6-	=6-	=6-	=6-	=6-
4AA/	-lis	2E/	tol-	4A/	-ca-	2e\	qui
*	*	*	*	*custos:c	*	*	*
!	!	!	!	!LO:TX:t=P:problem=kreska pseudotaktowa	!	!	!
4GG/	pec-	.	.	4B\	-ta	.	.
!	!	!	!	!LO:PB:g=original	!	!LO:TX:t=P:problem=kreska pseudotaktowa	!
!	!	!	!	!LO:TX:t=P:problem=kreska pseudotaktowa	!	!	!
4AA/	-ca-	4E/	-lis	2c\	mun-	2e\	tol-
!LO:TX:t=P:problem=kreska pseudotaktowa	!	!LO:TX:t=P:problem=kreska pseudotaktowa	!	!	!	!	!
4BB/	-ta	4D/	pec-	.	.	.	.
*custos:GG	*	*	*	*	*	*	*
!LO:TX:t=P:problem=kreska pseudotaktowa	!	!	!	!	!	!	!
1C	mun-	4E/	-ca-	2G/	-di	4e\	-lis
!LO:LB:g=original	!	!	!	!	!	!	!
.	.	4F/	-ta	.	.	4d\	pec-
*	*	*custos:B	*	*	*	*	*
!	!	!LO:TX:t=P:problem=kreska pseudotaktowa	!	!	!	!	!
!	!	!	!	!LO:TX:t=P:problem=kreska pseudotaktowa	!	!	!
.	.	2G/	mun-	2c\	mi-	4e\	-ca-
!	!	!LO:PB:g=original	!	!	!	!LO:TX:t=P:problem=kreska pseudotaktowa	!
.	.	.	.	.	.	4f\	-ta
=7-	=7-	=7-	=7-	=7-	=7-	=7-	=7-
2GG/	-di	2B\	-di	2B\	-ſe-	2g\	mun-
*	*Xij	*	*Xij	*	*	*	*
2.C/	mi-	1c	mi-	2.G/	-re-	4e\	-di
.	.	.	.	.	.	2e\	mi-
*	*	*	*	*	*	*custos:g	*
!	!	!	!	!	!	!LO:TX:t=P:problem=kreska pseudotaktowa	!
4D/	-ſe-	.	.	4F/	.	4f\	-ſe-
!LO:TX:t=P:problem=kreska pseudotaktowa	!	!	!	!	!	!LO:LB:g=original	!
2E\	-re-	1B\	-ſe-	1E/	.	1g\	-re-
=8-	=8-	=8-	=8-	=8-	=8-	=8-	=8-
1C	-re	.	.	.	.	.	.
!	!	!LO:TX:t=P::problem=kreska pseudotaktowa&colon;między nutą a kropką	!	!LO:TX:t=P:problem=kreska pseudotaktowa	!	!	!
.	.	2.A/	-re-	2A/	-re	1e	.
1E	no-	.	.	1B	no-	.	.
.	.	4A/	-re	.	.	.	.
!	!	!LO:TX:t=P:problem=kreska pseudotaktowa	!	!	!	!LO:TX:t=P:problem=kreska pseudotaktowa	!
.	.	2G#X/	no-	.	.	2B/	-re
=9-	=9-	=9-	=9-	=9-	=9-	=9-	=9-
!LO:TX:t=P:problem=kreska pseudotaktowa	!	!	!	!	!	!	!
1AA	-bis	1A	-bis	2A/	-bis	2c#X/	no-
!	!	!	!	!	!	!LO:TX:t=P:problem=kreska pseudotaktowa	!
.	.	.	.	4c\	Ag-	2e\	-bis
!	!	!	!	!LO:TX:t=P:problem=kreska pseudotaktowa	!	!	!
.	.	.	.	4d\	.	.	.
1E	Ag-	1.B	Ag-	4e\	-nus	1.g	A-
.	.	.	.	8d\L	.	.	.
.	.	.	.	8c\J	.	.	.
!	!	!	!	!LO:TX:t=P:problem=brakujące dźwięki?	!	!	!
.	.	.	.	4B\yy	.	.	.
.	.	.	.	4c\yy	.	.	.
=10-	=10-	=10-	=10-	=10-	=10-	=10-	=10-
1D	-nus	.	.	1.d	De-	.	.
!	!	!LO:TX:t=P:problem=kreska pseudotaktowa	!	!	!	!	!
.	.	2A/	-nus	.	.	2f\	-gnus
!LO:TX:t=P:problem=kreska pseudotaktowa	!	!	!	!	!	!LO:TX:t=P:problem=kreska pseudotaktowa	!
0E	De-	2G#X/	De-	.	.	0e	De-
.	.	1A\	.	2c\	.	.	.
=11-	=11-	=11-	=11-	=11-	=11-	=11-	=11-
!	!	!	!	!LO:TX:t=P:problem=kreska pseudotaktowa	!	!	!
.	.	.	.	1B	.	.	.
.	.	2G#X/	.	.	.	.	.
!	!	!LO:TX:t=P:problem=kreska pseudotaktowa	!	!	!	!	!
4AA/	-i	1A	-i	4c#X\	-i	2e\	-i
4AA/	qui	.	.	4c#\	qui	.	.
!LO:TX:t=P:problem=kreska pseudotaktowa	!	!	!	!LO:TX:t=P:problem=kreska pseudotaktowa	!	!	!
2AA/	tol-	.	.	2c#\	tol-	2e\	qui
=12-	=12-	=12-	=12-	=12-	=12-	=12-	=12-
4AA/	-lis	0r	.	4c#X\	-lis	2e\	tol-
4GG/	pec-	.	.	4B\	pec-	.	.
4AA/	-ca-	.	.	4c#\	-ca-	4e\	-lis
*	*	*	*	*custos:c	*	*	*
!LO:TX:t=P:problem=kreska pseudotaktowa	!	!	!	!	!	!LO:TX:t=P:problem=kreska pseudotaktowa	!
4BB/	-ta	.	.	4d\	-ta	4d\	pec-
!	!	!	!	!LO:LB:g=original	!	!	!
2C/	mun-	.	.	2cn\	mun-	4e\	-ca-
.	.	.	.	.	.	4f\	-ta
!LO:TX:t=P:problem=kreska pseudotaktowa	!	!	!	!LO:TX:t=P:problem=kreska pseudotaktowa	!	!	!
2GG/	-di	.	.	2B\	.	2g\	mun-
=13-	=13-	=13-	=13-	=13-	=13-	=13-	=13-
!	!	!	!	!	!	!LO:TX:t=P:problem=kreska pseudotaktowa	!
2D/	qui	2r	.	1.A	-di	1f	-di
!LO:TX:t=P:problem=kreska pseudotaktowa	!	!LO:TX:t=P:problem=kreska pseudotaktowa	!	!	!	!	!
2D/	tol-	2A/	qui	.	.	.	.
4D/	-lis	2A/	tol-	.	.	1r	.
4C/	pec-	.	.	.	.	.	.
!	!	!	!	!LO:TX:t=P:problem=kreska pseudotaktowa	!	!	!
*	*	*	*	*	*ij	*	*
4D/	-ca-	4A/	-lis	2A/	qui	.	.
*custos:F	*	*	*	*	*	*	*
!LO:TX:t=P:problem=kreska pseudotaktowa	!	!	!	!	!	!	!
!	!	!LO:TX:t=P:problem=kreska pseudotaktowa	!	!	!	!	!
4E\	-ta	4G/	pec-	.	.	.	.
!LO:LB:g=original	!	!	!	!	!	!	!
=14-	=14-	=14-	=14-	=14-	=14-	=14-	=14-
2F\	mun-	4A/	-ca-	2A/	tol-	2r	.
.	.	4B\	-ta	.	.	.	.
!	!	!	!	!	!	!LO:TX:t=P:problem=kreska pseudotaktowa	!
*	*	*	*	*	*	*	*ij
2C/	.	2.c\	mun-	4A/	-lis	2e\	qui
!	!	!	!	!LO:TX:t=P:problem=kreska pseudotaktowa	!	!	!
.	.	.	.	4G/	pec-	.	.
!LO:TX:t=P:problem=kreska pseudotaktowa	!	!	!	!	!	!	!
1AA	-di	.	.	4A/	-ca-	2e\	tol-
*	*	*custos:A	*	*	*	*	*
.	.	4B\	.	4B\	-ta	.	.
!	!	!LO:PB:g=original	!	!	!	!	!
!	!	!LO:TX:t=P:problem=kreska pseudotaktowa	!	!LO:TX:t=P:problem=kreska pseudotaktowa	!	!	!
.	.	2A/	.	2c\	mun-	4e\	-lis
!	!	!	!	!	!	!LO:TX:t=P:problem=kreska pseudotaktowa	!
.	.	.	.	.	.	4d\	pec-
=15-	=15-	=15-	=15-	=15-	=15-	=15-	=15-
*	*ij	*	*	*	*	*	*
2E\	qui	1E	.	2B\	.	4e\	-ca-
.	.	.	.	.	.	4f\	-ta
*	*	*	*	*	*	*custos:e	*
!	!	!	!	!	!	!LO:TX:t=P:problem=kreska pseudotaktowa	!
!	!	!	!	!LO:TX:t=P:problem=kreska pseudotaktowa	!	!	!
2E\	tol-	.	.	2B\	-di	2g\	mun-
4E\	-lis	2B\	-di	2B\	qui	1e	-di
*	*	*	*	*	*	*	*Xij
4D/	pec-	.	.	.	.	.	.
!	!	!LO:TX:t=P:problem=kreska pseudotaktowa	!	!	!	!	!
4E\	-ca-	2r	.	4B\	tol-	.	.
!LO:TX:t=P:problem=kreska pseudotaktowa	!	!	!	!LO:TX:t=P:problem=kreska pseudotaktowa	!	!	!
4F\	-ta	.	.	4A/	-lis	.	.
=16-	=16-	=16-	=16-	=16-	=16-	=16-	=16-
2.G\	mun-	2.B\	pec-	4B\	pec-	1B	pec-
.	.	.	.	4c\	-ca-	.	.
.	.	.	.	1d	-ta	.	.
4F\	.	4A/	-ca-	.	.	.	.
2E\	.	2G#X/	-ta	.	.	2e\	-ca-
!LO:TX:t=P:problem=kreska pseudotaktowa	!	!	!	!	!	!LO:TX:t=P:problem=kreska pseudotaktowa	!
2C/	.	1A\	mun-	2c\	mun-	2e\	-ta
=17-	=17-	=17-	=17-	=17-	=17-	=17-	=17-
!	!	!	!	!LO:TX:t=P:problem=kreska pseudotaktowa	!	!	!
1E	.	.	.	1B	.	1e	mun-
!	!	!LO:TX:t=P:problem=kreska pseudotaktowa	!	!	!	!	!
.	.	2G#X/	.	.	.	.	.
!LO:TX:t=P:problem=kreska pseudotaktowa	!	!	!	!	!	!	!
1AA	-di	1A	-di	1c#X	-di	1e	-di
*	*Xij	*	*	*	*Xij	*	*
=18-	=18-	=18-	=18-	=18-	=18-	=18-	=18-
*M3/1	*	*M3/1	*	*M3/1	*	*M3/1	*
*met(O3)	*	*met(O3)	*	*met(O3)	*	*met(O3)	*
1.D	do-	0.A	do-	1d	do-	1.f#X	do-
.	.	.	.	1A	-na	.	.
2E\	-na	.	.	.	.	2g\	-na
*	*	*	*	*custos:B	*	*	*
!	!	!	!	!LO:TX:t=P:problem=kreska pseudotaktowa	!	!	!
2F#X\	no-	.	.	1d	no-	2a\	no-
!	!	!	!	!LO:LB:g=original	!	!	!
!LO:TX:t=P:problem=kreska pseudotaktowa	!	!	!	!	!	!LO:TX:t=P:problem=kreska pseudotaktowa	!
2D/	-bis	.	.	.	.	2f#X\	-bis
=19-	=19-	=19-	=19-	=19-	=19-	=19-	=19-
1G	pa-	0.G	-na	1B	-bis	1g	pa-
*custos:D	*	*	*	*	*	*	*
!LO:TX:t=P:problem=kreska pseudotaktowa	!	!	!	!	!	!	!
0GG	-cem	.	.	1B	pa-	0d	-cem
!	!	!	!	!LO:TX:t=P:problem=kreska pseudotaktowa	!	!	!
.	.	.	.	1B	-cem	.	.
=20-	=20-	=20-	=20-	=20-	=20-	=20-	=20-
!	!	!LO:TX:a:t=P:problem=# above	!	!	!	!	!
*	*ij	*	*	*	*ij	*	*ij
1.D	do-	0.F#X	no-	0A	do-	0d	do-
2E\	-na	.	.	.	.	.	.
!	!	!	!	!LO:TX:t=P:problem=kreska pseudotaktowa	!	!LO:TX:t=P:problem=kreska pseudotaktowa	!
2F#X\	no-	.	.	1A	-na	1d	-na
!LO:TX:t=P:problem=kreska pseudotaktowa	!	!	!	!	!	!	!
2D/	-bis	.	.	.	.	.	.
=21-	=21-	=21-	=21-	=21-	=21-	=21-	=21-
1G	pa-	0.G	.	0B	no-	0d	no-
1GG	.	.	.	.	.	.	.
!LO:TX:t=P:problem=kreska pseudotaktowa	!	!	!	!LO:TX:t=P:problem=kreska pseudotaktowa	!	!LO:TX:t=P:problem=kreska pseudotaktowa	!
1G	.	.	.	1B	-bis	1d	-bis
=22-	=22-	=22-	=22-	=22-	=22-	=22-	=22-
1D	.	0.F	-bis	1A	pa-	1d	pa-
!LO:TX:t=P:problem=kreska pseudotaktowa	!	!	!	!LO:TX:t=P:problem=kreska pseudotaktowa	!	!	!
0D	-cem	.	.	0A	-cem	0d	-cem
=23-	=23-	=23-	=23-	=23-	=23-	=23-	=23-
1.AA	do-	0.E	pa-	1.c#X	do-	0e	do-
2BB/	-na	.	.	2d\	na	.	.
!	!	!	!	!	!	!LO:TX:t=P:problem=kreska pseudotaktowa	!
2C#X/	no-	.	.	2e\	no-	1A	-na
!LO:TX:t=P:problem=kreska pseudotaktowa	!	!	!	!LO:TX:t=P:problem=kreska pseudotaktowa	!	!	!
2AA/	-bis	.	.	2c#\	-bis	.	.
=24-	=24-	=24-	=24-	=24-	=24-	=24-	=24-
0D	pa-	0.F	.	1d	pa-	1A	no-
*	*	*	*	*	*	*custos:d	*
!	!	!	!	!LO:TX:t=P:problem=kreska pseudotaktowa	!	!	!
.	.	.	.	0A	-cem	0A	-bis
!LO:TX:t=P:problem=kreska pseudotaktowa	!	!	!	!	!	!LO:PB:g=original	!
1D	-cem	.	.	.	.	.	.
=25-	=25-	=25-	=25-	=25-	=25-	=25-	=25-
0GG	pa-	0.D	.	0.B-X	do-	0d	pa-
!LO:TX:t=P:problem=kreska pseudotaktowa	!	!	!	!	!	!LO:TX:t=P:problem=kreska pseudotaktowa	!
1GG	-cem	.	.	.	.	1d	-cem
=26-	=26-	=26-	=26-	=26-	=26-	=26-	=26-
1.D	do-	0.D	-cem	0.A	-na	2d\	do-
.	.	.	.	.	.	2e\	.
.	.	.	.	.	.	2f#X\	.
2E\	-na	.	.	.	.	2g\	.
!LO:TX:a:t=P:problem=# above	!	!	!	!	!	!	!
2F#X\	no-	.	.	.	.	2a\	-na
!LO:TX:t=P:problem=kreska pseudotaktowa	!	!	!	!	!	!LO:TX:t=P:problem=kreska pseudotaktowa	!
2D/	-bis	.	.	.	.	2f#X\	.
=27-	=27-	=27-	=27-	=27-	=27-	=27-	=27-
1G	pa-	1%9D	.	2B-X\	no-	0g	no-
.	.	.	.	2A/	.	.	.
0GG	.	.	.	2B-\	.	.	.
.	.	.	.	2c\	.	.	.
.	.	.	.	1d	-bis	1d	-bis
=28-	=28-	=28-	=28-	=28-	=28-	=28-	=28-
0.GG	.	.	.	0.B-X	pa-	1d	pa-
.	.	.	.	.	.	0g	.
=29-	=29-	=29-	=29-	=29-	=29-	=29-	=29-
0.D;	-cem	.	.	0.A	-cem	0.f#X	-cem
*	*Xij	*	*	*	*Xij	*	*Xij
=-	=-	=-	=-	=-	=-	=-	=-
*-	*-	*-	*-	*-	*-	*-	*-
!!!system-decoration: [(s1,s2,s3,s4)]
!!!ENC: Filip Voros
!!!END: 2022-01-27
!!!ENC: Julita Ruszuk
!!!END: 2022-01-29
